X:1
T:B minor    Solomon Howe, 1804
T:Isaac Watts, 1717 (Psalm 58)              88. 88. 88.
T:East Florida
T:Transcribed from The Farmer's Evening Entertainment, 1804.
%%score [ 1 2 3 4 ]
L:1/8
Q:1/4=100
M:6/4
K:D
V:1 treble nm="Tr." snm="Tr."
V:2 treble nm="C." snm="C."
V:3 treble-8 nm="T." snm="T."
V:4 bass nm="B." snm="B."
V:1
"^1. A       poisoned    arrow   is   your  tongue,  The arrow sharp, the poison strong,  And  death  attends  where–e'er  it   wounds:      You" B6 | %1
 B4 c2 B4 B2 | A4 Bc d4 d2 | f4 d2 d4 d2 | (c2 d2) e2 d4 d2 | c4 c2 d4 f2 | (e2 d2) c2 [Bd]6- | %7
 [Bd]6 B6 | %8
"^1. hear no counsels, cries, or tears;  So the deaf ad –der stops her ears    A – gainst  the  power  of  char–ming  sounds. __" B4 d2 c4 c2 | %9
 d4 B2 c4 c2 | c4 AB c4 d2 | c4 c2 c4 c2 | d4 cd e4 e>d | c4 c2 [Bd]6- | [Bd]6 |] %15
V:2
"^2. Break  out  their  teeth,  e –ter –nal  God,  Those teeth of lions dyed in blood;  And crush the serpents in _____  the  dust:____   As" F6 | %1
 F4 F2 E4 F2 | E4 F2 F4 F2 | D4 F2 F4 F2 | (E2 F2) G2 F4 D2 | E4 E2 F4 F2 | (G2 F2) F2 F6- | %7
 F6 F6 | %8
"^2. empty chaff when whirlwinds rise  Before the sweeping tempest flies,  So  let  their  hopes  and  names  be  lost. ____" F4 G2 A4 A2 | %9
 F4 E2 F4 F2 | E4 F2 E4 F2 | E4 E2 E4 E2 | F4 GA B4 B2 | ^A4 F2 F6- | F6 |] %15
V:3
"^3. Thus  shall  the  vengeance  of   the   Lord  Safe–ty  and  joy  to   saints  af–ford;  And all that hear shall join ____ and  say, ____   Sure" B6 | %1
 d4 c2 B4 d2 | c4 B2 A4 A2 | B4 B2 A4 A2 | (G2 F2) E2 F4 F2 | A4 F2 B4 d2 | (c2 B2) ^A2 B6- | %7
 B6 B6 | %8
"^3. there's a God that rules on high,  A God that hears  his children cry,   And  will  their  suf–ferings    well   re–pay. ____" d4 d2 e4 c2 | %9
 A4 G2 F4 F2 | G4 F2 E4 D2 | E4 E2 E4 E2 | F4 A2 B4 B2 | ^A4 A2 B6- | B6 |] %15
V:4
 B,,6 | B,,4 C,D, E,4 D,2 | A,,4 B,,C, D,4 D,2 | B,,4 B,,2 D,4 D,2 | (E,2 D,2) C,2 D,4 B,,2 | %5
 A,,4 A,,2 B,,4 B,,2 | (C,D, E,2) F,2 B,,6- | B,,6 B,,6 | B,,4 B,,2 C,4 A,,2 | D,4 E,2 A,,4 A,,2 | %10
 E,4 D,2 A,,4 B,,2 | %11
"^___________________________________________________\nEdited by B. C. Johnston, 2017\n   1. Measure 5, \nTenor\n: first note changed from G# to G.  \n   2. Measure 8, All parts: in original, measure 8 ends with three beats rest, and the next measure begins with three beats rest; all these rests removed.\n   3. Measure 11, \nBass\n: first two notes changed from C-D to E-D.\n   4. Measure 14, Counter: first two notes changed from A-G# to A#-A# (see Tenor)." A,,4 A,,2 A,,4 A,,2 | %12
 D,4 F,2 E,4 E,2 | F,4 [F,,F,]2 B,,6- | B,,6 |] %15

